X:108
T:Mowers, The
M:6/8
L:1/8
B:Thompson's Compleat Collection of 200 Favourite Country Dances, vol. 3 (London, 1773)
Z:Transcribed and edited by Flynn Titford-Mock, 2007
Z:abc's:AK/Fiddler's Companion
K:F
FAc Acf | afc BAG | Acf cBA | GAF EDC | FAc Acf | afc BAG | A=Bc def | ge=B c3 :|
|: ceg gec | fed ^c3 | def gab | gfe d2c | Acf cBA | BdF E2 [Cc] | FAc Acf | ABG F3 :|

